!!!OTL@@FUR: Al '&egrave; rot il calder&igrave;n
!!!OTL@IT: Si &egrave; rotto il paiolino
!!!OTL@EN: The pot is broken
**kern
*clefG2
*k[]
*C:
*M2/4
*MM140
*>[A,B,C,B,D]
*>A
8.g
16g
=1!|:
*>B
8a
8a
8g
8e
=2
4a
8.g
16g
=3
8a
8a
8g
8e
=4
4.f
8g
=5
8.b
16b
8.a
16g
=6
4g
8.f
16g
=7
8.b
16b
8.a
16g
=8
8g
8e
8.g
16g
=9
8a
8a
8g
8e
=10
4a
8.g
16g
=11
8a
8a
8g
8e
=12
4.f
8g
=13
8.b
16b
8.a
16g
=14
4g
8.f
16g
=15
8b
8a
8g
8f
=16||
*>C
4e
8.g
16g
=17:|!
*>D
2e
==
*-
!!!ARE: Friuli
!!!ENC: Kelly Leistikow
!!!END: 2002/03/07
!!!ref: @{OTL@@FUR}/@{OTL@EN}
